X:1
T: Lady Ann Hope's Favourite
C:Niel Gow
R:Strathspey
Q: 128
K:G
M:4/4
L:1/16
|:ge|d3B G2Bc dcBA G2Bc|d3B g3B A4 A2Bc|d3B G3B d2ga b3a|g3e d3B G4 G2ge|
d3B G2Bc dcBA G2Bc|d3B g3B A4 A2Bc|d3B G3B d2ga b3a|g3e d3B G4 G2a2|
gaba g3d efgf d2cB|d2ef gedB A4 A3a|gaba g3d efgf e2dB|d2ef gedB d4 d3a|
gaba g3d efgf d2cB|d2ef gedB A4 A2ge|d3B G3B d2ga b3a|g3e d3B G4 G2:|
